elements/app-hax/lib/assets/images/LMGrid.svg

<svg width="1280" height="600" viewBox="0 0 1280 600" fill="none" xmlns="http://www.w3.org/2000/svg">
<path d="M1297 149.665H-62.4935M1297 296.437H-62.4935M1297 443.21H-62.4935M1297 589.982H-62.4935M39.5323 2.89246V604M192.571 2.89246V604M345.61 2.89246V604M498.648 2.89246V604M651.687 2.89246V604M804.726 604V3M957.764 604V3M1110.8 604V3M1263.84 3V599.107" stroke="black" stroke-opacity="0.25"/>
<path d="M-63.4936 29.3545V29.1045H-63.7436V29.3545H-63.4936ZM1293.45 589.519L-58.3923 589.519V590.019L1293.45 590.019V589.519ZM1296 175.877L-63.4936 175.877V176.377L1296 176.377V175.877ZM1296 200.339L-63.4936 200.339V200.839L1296 200.839V200.339ZM1296 224.801L-63.4936 224.801V225.301L1296 225.301V224.801ZM1296 249.263L-63.4936 249.263V249.763L1296 249.763V249.263ZM1296 273.725L-63.4936 273.725V274.225L1296 274.225V273.725ZM1296 29.1046L-63.4936 29.1045V29.6045L1296 29.6046V29.1046ZM1296 53.5666L-63.4936 53.5665V54.0665L1296 54.0666V53.5666ZM1296 78.0287L-63.4936 78.0286V78.5286L1296 78.5287V78.0287ZM1296 102.491L-63.4936 102.491V102.991L1296 102.991V102.491ZM1296 126.953L-63.4936 126.953V127.453L1296 127.453V126.953ZM1296 469.422L-63.4936 469.422V469.922L1296 469.922V469.422ZM1296 493.884L-63.4936 493.884V494.384L1296 494.384V493.884ZM1296 518.346L-63.4936 518.346V518.846L1296 518.846V518.346ZM1296 542.808L-63.4936 542.808V543.308L1296 543.308V542.808ZM1296 567.27L-63.4936 567.27V567.77L1296 567.77V567.27ZM1296 322.649L-63.4936 322.649V323.149L1296 323.149V322.649ZM1296 347.111L-63.4936 347.111V347.611L1296 347.611V347.111ZM1296 371.573L-63.4936 371.573V372.073L1296 372.073V371.573ZM1296 396.035L-63.4936 396.035V396.535L1296 396.535V396.035ZM1296 420.497L-63.4936 420.497V420.997L1296 420.997V420.497ZM-89.25 0V592.215H-88.75V0H-89.25ZM-63.7436 29.3545V597.108H-63.2436V29.3545H-63.7436ZM-38.2371 4.89241V597.108H-37.7371V4.89241H-38.2371ZM-12.7307 4.89241L-12.7307 597.108H-12.2307L-12.2307 4.89241H-12.7307ZM12.7758 3V605H13.2758V3H12.7758ZM1135.06 3V602H1135.56V3H1135.06ZM1160.57 2.99997V602H1161.07V2.99997H1160.57ZM1186.07 2.99997V602H1186.57V2.99997H1186.07ZM1211.58 2.99997V602H1212.08V2.99997H1211.58ZM1237.09 2.99997V602H1237.59V2.99997H1237.09ZM63.7887 3V602H64.2887V3H63.7887ZM89.2951 3V602H89.7951V3H89.2951ZM114.802 3V602H115.302V3H114.802ZM140.308 3V602H140.808V3H140.308ZM165.814 3V602H166.314V3H165.814ZM369.866 3V602H370.366V3H369.866ZM395.372 3L395.372 602H395.872L395.872 3H395.372ZM420.879 3L420.879 602H421.379L421.379 3H420.879ZM446.385 3V602H446.885V3H446.385ZM471.892 3V602H472.392V3H471.892ZM216.827 3V602H217.327V3H216.827ZM242.334 3V602H242.834V3H242.334ZM267.84 3V602H268.34V3H267.84ZM293.347 3V602H293.847V3H293.347ZM318.853 3V602H319.353V3H318.853ZM675.943 1.10759V602H676.443V1.10759H675.943ZM701.45 3V606.892H701.95V3H701.45ZM726.956 3V602H727.456V3H726.956ZM752.463 3V602H752.963V3H752.463ZM777.969 3V602H778.469V3H777.969ZM522.905 3V602H523.405V3H522.905ZM548.411 3V602H548.911V3H548.411ZM573.918 3V602H574.418V3H573.918ZM599.424 3V602H599.924V3H599.424ZM624.93 3V602H625.43V3H624.93ZM982.021 3V602H982.521V3H982.021ZM1007.53 3V602H1008.03V3H1007.53ZM1033.03 3V602H1033.53V3H1033.03ZM1058.54 3V602H1059.04V3H1058.54ZM1084.05 3V602H1084.55V3H1084.05ZM828.982 3V602H829.482V3H828.982ZM854.489 3V602H854.989V3H854.489ZM879.995 3V602H880.495V3H879.995ZM905.501 3V602H906.001V3H905.501ZM931.008 3V602H931.508V3H931.008Z" fill="black" fill-opacity="0.25"/>
</svg>

<svg xmlns="http://www.w3.org/2000/svg" fill="none" width="1280" height="600" viewBox="0 0 1280 600"><path d="M1297 149.665H-62.494M1297 296.437H-62.494M1297 443.21H-62.494M1297 589.982H-62.494M39.532 2.892V604M192.571 2.892V604M345.61 2.892V604M498.648 2.892V604M651.687 2.892V604m153.039 0V3m153.038 601V3M1110.8 604V3m153.04 0v596.107" stroke="#000" stroke-opacity=".25"/><path d="M-63.494 29.355v-.25h-.25v.25h.25ZM1293.45 589.519H-58.392v.5H1293.45v-.5Zm2.55-413.642H-63.494v.5H1296v-.5Zm0 24.462H-63.494v.5H1296v-.5Zm0 24.462H-63.494v.5H1296v-.5Zm0 24.462H-63.494v.5H1296v-.5Zm0 24.462H-63.494v.5H1296v-.5Zm0-244.62H-63.494v.5H1296v-.5Zm0 24.462H-63.494v.5H1296v-.5Zm0 24.462H-63.494v.5H1296v-.5Zm0 24.462H-63.494v.5H1296v-.5Zm0 24.462H-63.494v.5H1296v-.5Zm0 342.469H-63.494v.5H1296v-.5Zm0 24.462H-63.494v.5H1296v-.5Zm0 24.462H-63.494v.5H1296v-.5Zm0 24.462H-63.494v.5H1296v-.5Zm0 24.462H-63.494v.5H1296v-.5Zm0-244.621H-63.494v.5H1296v-.5Zm0 24.462H-63.494v.5H1296v-.5Zm0 24.462H-63.494v.5H1296v-.5Zm0 24.462H-63.494v.5H1296v-.5Zm0 24.462H-63.494v.5H1296v-.5ZM-89.25 0v592.215h.5V0h-.5Zm25.506 29.355v567.753h.5V29.355h-.5Zm25.507-24.463v592.216h.5V4.892h-.5Zm25.506 0v592.216h.5V4.892h-.5ZM12.776 3v602h.5V3h-.5ZM1135.06 3v599h.5V3h-.5Zm25.51 0v599h.5V3h-.5Zm25.5 0v599h.5V3h-.5Zm25.51 0v599h.5V3h-.5Zm25.51 0v599h.5V3h-.5ZM63.789 3v599h.5V3h-.5Zm25.506 0v599h.5V3h-.5Zm25.507 0v599h.5V3h-.5Zm25.506 0v599h.5V3h-.5Zm25.506 0v599h.5V3h-.5Zm204.052 0v599h.5V3h-.5Zm25.506 0v599h.5V3h-.5Zm25.507 0v599h.5V3h-.5Zm25.506 0v599h.5V3h-.5Zm25.507 0v599h.5V3h-.5ZM216.827 3v599h.5V3h-.5Zm25.507 0v599h.5V3h-.5Zm25.506 0v599h.5V3h-.5Zm25.507 0v599h.5V3h-.5Zm25.506 0v599h.5V3h-.5Zm357.09-1.892V602h.5V1.108h-.5ZM701.45 3v603.892h.5V3h-.5Zm25.506 0v599h.5V3h-.5Zm25.507 0v599h.5V3h-.5Zm25.506 0v599h.5V3h-.5ZM522.905 3v599h.5V3h-.5Zm25.506 0v599h.5V3h-.5Zm25.507 0v599h.5V3h-.5Zm25.506 0v599h.5V3h-.5Zm25.506 0v599h.5V3h-.5Zm357.091 0v599h.5V3h-.5Zm25.509 0v599h.5V3h-.5Zm25.5 0v599h.5V3h-.5Zm25.51 0v599h.5V3h-.5Zm25.51 0v599h.5V3h-.5ZM828.982 3v599h.5V3h-.5Zm25.507 0v599h.5V3h-.5Zm25.506 0v599h.5V3h-.5Zm25.506 0v599h.5V3h-.5Zm25.507 0v599h.5V3h-.5Z" fill="#000" fill-opacity=".25"/></svg>
